illustrations/merge_request_changes_empty.svg

<svg xmlns="http://www.w3.org/2000/svg" width="374" height="268" xmlns:xlink="http://www.w3.org/1999/xlink">
  <defs>
    <circle id="a" cx="44" cy="44" r="44"/>
    <circle id="b" cx="31" cy="31" r="31"/>
    <circle id="c" cx="35" cy="35" r="35"/>
    <rect id="d" width="230" height="176" rx="10"/>
    <circle id="e" cx="31" cy="31" r="31"/>
  </defs>
  <g fill="none" fill-rule="evenodd">
    <g transform="translate(4 98)">
      <circle cx="53" cy="53" r="44" fill="#F9F9F9"/>
      <g transform="translate(6 6)">
        <use fill="#FFF" xlink:href="#a"/>
        <circle cx="44" cy="44" r="42" stroke="#EEE" stroke-width="4"/>
        <path fill="#FEE1D3" fill-rule="nonzero" d="M34.393813 55.7359021C35.0697211 55.2571338 35.8775885 55 36.7058824 55H56c3.3137085 0 6-2.6862915 6-6V35c0-3.3137085-2.6862915-6-6-6H34c-3.3137085 0-6 2.6862915-6 6v25.2648529l6.393813-4.5289508zM36.7058824 59l-7.9718304 5.6467132c-.5069311.3590761-1.1128316.5519265-1.734052.5519265-1.6568542 0-3-1.3431457-3-3V35c0-5.5228475 4.4771525-10 10-10h22c5.5228475 0 10 4.4771525 10 10v14c0 5.5228475-4.4771525 10-10 10H36.7058824z"/>
        <path fill="#FC6D26" d="M38 40c1.1045695 0 2 .8954305 2 2s-.8954305 2-2 2-2-.8954305-2-2 .8954305-2 2-2zm7 0c1.1045695 0 2 .8954305 2 2s-.8954305 2-2 2-2-.8954305-2-2 .8954305-2 2-2zm7 0c1.1045695 0 2 .8954305 2 2s-.8954305 2-2 2-2-.8954305-2-2 .8954305-2 2-2z"/>
      </g>
    </g>
    <g transform="translate(50 2)">
      <circle cx="39" cy="39" r="31" fill="#F9F9F9"/>
      <g transform="translate(5 5)">
        <use fill="#FFF" xlink:href="#b"/>
        <circle cx="31" cy="31" r="29" stroke="#EEE" stroke-width="4"/>
        <rect width="20" height="4" x="21" y="29" fill="#6B4FBB" rx="2"/>
      </g>
    </g>
    <path fill="#F9F9F9" d="M235.580203 229H102c-6.627417 0-12-5.372583-12-12V65c0-6.627417 5.372583-12 12-12h206c6.627417 0 12 5.372583 12 12v18.3986044C325.033466 80.5963751 330.830306 79 337 79c19.329966 0 35 15.6700338 35 35s-15.670034 35-35 35c-6.169694 0-11.966534-1.5963751-17-4.3986044V217c0 6.627417-5.372583 12-12 12h-11.580203c.380691 1.941179.580203 3.94729.580203 6 0 17.120827-13.879173 31-31 31s-31-13.879173-31-31c0-2.05271.199512-4.058821.580203-6z"/>
    <g transform="translate(87 50)">
      <g transform="translate(212 26)">
        <use fill="#FFF" xlink:href="#c"/>
        <circle cx="35" cy="35" r="33" stroke="#EEE" stroke-width="4"/>
        <g transform="translate(20 19)">
          <circle cx="15" cy="16" r="15" fill="#F4F1FA" stroke="#6B4FBB" stroke-width="3"/>
          <path fill="#6B4FBB" d="M19.4189007 6.99558678l-.0072263.00000183L16.9586253 4l-2.4540672 2.99683187-.0051876.00000131L12.0453023 4 9.59021555 6.99807696l-.00314886 8e-7L7.13197929 4 4.67587296 6.99932205 2 7c2.60547306-4.20413993 7.23056895-7 12.5019638-7C19.7707109 0 24.3938081 2.79305214 27 6.99366605l-2.6760218.00067799L21.8719483 4l-2.4530476 2.99558678z"/>
          <circle cx="9.5" cy="17.5" r="1.5" fill="#6B4FBB"/>
          <circle cx="20.5" cy="17.5" r="1.5" fill="#6B4FBB"/>
        </g>
      </g>
      <use fill="#FFF" xlink:href="#d"/>
      <rect width="226" height="172" x="2" y="2" stroke="#EEE" stroke-width="4" rx="10"/>
      <rect width="4" height="122" x="33" y="42" fill="#EEE" rx="2"/>
      <g transform="translate(13 59)">
        <rect width="10" height="4" fill="#FEE1D3" rx="2"/>
        <rect width="10" height="4" y="12" fill="#F0EDF8" rx="2"/>
        <rect width="10" height="4" y="24" fill="#FEF0E9" rx="2"/>
        <rect width="10" height="4" y="36" fill="#FEE1D3" rx="2"/>
        <rect width="10" height="4" y="48" fill="#E1DBF1" rx="2"/>
        <rect width="10" height="4" y="60" fill="#F0EDF8" rx="2"/>
        <rect width="10" height="4" y="72" fill="#FEF0E9" rx="2"/>
        <rect width="10" height="4" y="84" fill="#FEE1D3" rx="2"/>
      </g>
      <g transform="translate(55 59)">
        <rect width="14" height="4" fill="#6B4FBB" rx="2"/>
        <rect width="14" height="4" x="20" fill="#F0EDF8" rx="2"/>
        <rect width="14" height="4" x="40" fill="#FEF0E9" rx="2"/>
        <rect width="14" height="4" y="12" fill="#F0EDF8" rx="2"/>
        <rect width="14" height="4" x="40" y="24" fill="#FEF0E9" rx="2"/>
        <rect width="14" height="4" y="48" fill="#E1DBF1" rx="2"/>
        <rect width="14" height="4" x="40" y="36" fill="#FEF0E9" rx="2"/>
        <rect width="7" height="4" x="20" y="12" fill="#FEE1D3" rx="2"/>
        <rect width="7" height="4" x="27" y="36" fill="#6B4FBB" rx="2"/>
        <rect width="7" height="4" x="20" y="48" fill="#FEE1D3" rx="2"/>
        <rect width="7" height="4" y="24" fill="#FC6D26" rx="2"/>
        <rect width="21" height="4" x="13" y="24" fill="#E1DBF1" rx="2"/>
        <rect width="21" height="4" y="36" fill="#EEE" rx="2"/>
        <rect width="7" height="4" x="33" y="12" fill="#6B4FBB" rx="2"/>
        <g transform="translate(98)">
          <rect width="14" height="4" fill="#FEE1D3" rx="2"/>
          <rect width="14" height="4" x="20" fill="#F0EDF8" rx="2"/>
          <rect width="14" height="4" x="40" fill="#FC6D26" rx="2"/>
          <rect width="14" height="4" y="12" fill="#FEF0E9" rx="2"/>
          <rect width="14" height="4" x="40" y="24" fill="#E1DBF1" rx="2"/>
          <rect width="14" height="4" y="48" fill="#F0EDF8" rx="2"/>
          <rect width="14" height="4" x="40" y="36" fill="#FEE1D3" rx="2"/>
          <rect width="7" height="4" x="20" y="12" fill="#FC6D26" rx="2"/>
          <rect width="7" height="4" x="27" y="36" fill="#6B4FBB" rx="2"/>
          <rect width="7" height="4" x="20" y="48" fill="#FC6D26" rx="2"/>
          <rect width="7" height="4" y="24" fill="#6B4FBB" rx="2"/>
          <rect width="21" height="4" x="13" y="24" fill="#FEE1D3" rx="2"/>
          <rect width="21" height="4" y="36" fill="#FEF0E9" rx="2"/>
          <rect width="7" height="4" x="33" y="12" fill="#6B4FBB" rx="2"/>
        </g>
        <g transform="translate(0 60)">
          <rect width="14" height="4" fill="#F0EDF8" rx="2"/>
          <rect width="14" height="4" x="20" fill="#6B4FBB" rx="2"/>
          <rect width="14" height="4" x="40" fill="#E1DBF1" rx="2"/>
          <rect width="14" height="4" y="12" fill="#FEF0E9" rx="2"/>
          <rect width="14" height="4" x="40" y="24" fill="#FEE1D3" rx="2"/>
          <rect width="7" height="4" x="20" y="12" fill="#EEE" rx="2"/>
          <rect width="7" height="4" y="24" fill="#6B4FBB" rx="2"/>
          <rect width="21" height="4" x="13" y="24" fill="#FEF0E9" rx="2"/>
          <rect width="7" height="4" x="33" y="12" fill="#FC6D26" rx="2"/>
        </g>
        <rect width="4" height="63" x="74" y="13" fill="#EEE" rx="2"/>
      </g>
      <rect width="230" height="4" y="27" fill="#EEE" rx="2"/>
    </g>
    <g transform="translate(233 201)">
      <use fill="#FFF" xlink:href="#e"/>
      <circle cx="31" cy="31" r="29" stroke="#EEE" stroke-width="4"/>
      <path fill="#FC6D26" d="M29 29v-6c0-1.1045695.8954305-2 2-2s2 .8954305 2 2v6h6c1.1045695 0 2 .8954305 2 2s-.8954305 2-2 2h-6v6c0 1.1045695-.8954305 2-2 2s-2-.8954305-2-2v-6h-6c-1.1045695 0-2-.8954305-2-2s.8954305-2 2-2h6z"/>
    </g>
  </g>
</svg>

<svg xmlns="http://www.w3.org/2000/svg" width="374" height="268" viewBox="0 0 374 268" xmlns:xlink="http://www.w3.org/1999/xlink">
  <defs>
    <circle id="a" cx="44" cy="44" r="44"/>
    <circle id="b" cx="31" cy="31" r="31"/>
    <circle id="c" cx="35" cy="35" r="35"/>
    <rect id="d" width="230" height="176" rx="10"/>
    <circle id="e" cx="31" cy="31" r="31"/>
  </defs>
  <g fill="none" fill-rule="evenodd" transform="translate(4 2)">
    <g transform="translate(0 96)">
      <circle cx="53" cy="53" r="44" fill="#F9F9F9"/>
      <g transform="translate(6 6)">
        <use fill="#FFFFFF" xlink:href="#a"/>
        <circle cx="44" cy="44" r="42" stroke="#EEEEEE" stroke-width="4"/>
        <path fill="#FEE1D3" fill-rule="nonzero" d="M34.393813,55.7359021 C35.0697211,55.2571338 35.8775885,55 36.7058824,55 L56,55 C59.3137085,55 62,52.3137085 62,49 L62,35 C62,31.6862915 59.3137085,29 56,29 L34,29 C30.6862915,29 28,31.6862915 28,35 L28,60.2648529 L34.393813,55.7359021 Z M36.7058824,59 L28.734052,64.6467132 C28.2271209,65.0057893 27.6212204,65.1986397 27,65.1986397 C25.3431458,65.1986397 24,63.855494 24,62.1986397 L24,35 C24,29.4771525 28.4771525,25 34,25 L56,25 C61.5228475,25 66,29.4771525 66,35 L66,49 C66,54.5228475 61.5228475,59 56,59 L36.7058824,59 Z"/>
        <path fill="#FC6D26" d="M38,40 C39.1045695,40 40,40.8954305 40,42 C40,43.1045695 39.1045695,44 38,44 C36.8954305,44 36,43.1045695 36,42 C36,40.8954305 36.8954305,40 38,40 Z M45,40 C46.1045695,40 47,40.8954305 47,42 C47,43.1045695 46.1045695,44 45,44 C43.8954305,44 43,43.1045695 43,42 C43,40.8954305 43.8954305,40 45,40 Z M52,40 C53.1045695,40 54,40.8954305 54,42 C54,43.1045695 53.1045695,44 52,44 C50.8954305,44 50,43.1045695 50,42 C50,40.8954305 50.8954305,40 52,40 Z"/>
      </g>
    </g>
    <g transform="translate(46)">
      <circle cx="39" cy="39" r="31" fill="#F9F9F9"/>
      <g transform="translate(5 5)">
        <use fill="#FFFFFF" xlink:href="#b"/>
        <circle cx="31" cy="31" r="29" stroke="#EEEEEE" stroke-width="4"/>
        <rect width="20" height="4" x="21" y="29" fill="#6B4FBB" rx="2"/>
      </g>
    </g>
    <path fill="#F9F9F9" d="M145.580203,176 L12,176 C5.372583,176 8.11624501e-16,170.627417 0,164 L0,12 C-8.11624501e-16,5.372583 5.372583,1.21743675e-15 12,0 L218,0 C224.627417,-1.21743675e-15 230,5.372583 230,12 L230,30.3986044 C235.033466,27.5963751 240.830306,26 247,26 C266.329966,26 282,41.6700338 282,61 C282,80.3299662 266.329966,96 247,96 C240.830306,96 235.033466,94.4036249 230,91.6013956 L230,164 C230,170.627417 224.627417,176 218,176 L206.419797,176 C206.800488,177.941179 207,179.94729 207,182 C207,199.120827 193.120827,213 176,213 C158.879173,213 145,199.120827 145,182 C145,179.94729 145.199512,177.941179 145.580203,176 Z" transform="translate(86 51)"/>
    <g transform="translate(83 48)">
      <g transform="translate(212 26)">
        <use fill="#FFFFFF" xlink:href="#c"/>
        <circle cx="35" cy="35" r="33" stroke="#EEEEEE" stroke-width="4"/>
        <g transform="translate(20 19)">
          <circle cx="15" cy="16" r="15" fill="#F4F1FA" stroke="#6B4FBB" stroke-width="3"/>
          <path fill="#6B4FBB" d="M19.4189007,6.99558678 L19.4116744,6.99558861 L16.9586253,4 L14.5045581,6.99683187 L14.4993705,6.99683318 L12.0453023,4 L9.59021555,6.99807696 L9.58706669,6.99807776 L7.13197929,4 L4.67587296,6.99932205 L2,7 C4.60547306,2.79586007 9.23056895,0 14.5019638,0 C19.7707109,0 24.3938081,2.79305214 27,6.99366605 L24.3239782,6.99434404 L21.8719483,4 L19.4189007,6.99558678 Z"/>
          <circle cx="9.5" cy="17.5" r="1.5" fill="#6B4FBB"/>
          <circle cx="20.5" cy="17.5" r="1.5" fill="#6B4FBB"/>
        </g>
      </g>
      <use fill="#FFFFFF" xlink:href="#d"/>
      <rect width="226" height="172" x="2" y="2" stroke="#EEEEEE" stroke-width="4" rx="10"/>
      <rect width="4" height="122" x="33" y="42" fill="#EEEEEE" rx="2"/>
      <g transform="translate(13 59)">
        <rect width="10" height="4" fill="#FEE1D3" rx="2"/>
        <rect width="10" height="4" y="12" fill="#F0EDF8" rx="2"/>
        <rect width="10" height="4" y="24" fill="#FEF0E9" rx="2"/>
        <rect width="10" height="4" y="36" fill="#FEE1D3" rx="2"/>
        <rect width="10" height="4" y="48" fill="#E1DBF1" rx="2"/>
        <rect width="10" height="4" y="60" fill="#F0EDF8" rx="2"/>
        <rect width="10" height="4" y="72" fill="#FEF0E9" rx="2"/>
        <rect width="10" height="4" y="84" fill="#FEE1D3" rx="2"/>
      </g>
      <g transform="translate(55 59)">
        <rect width="14" height="4" fill="#6B4FBB" rx="2"/>
        <rect width="14" height="4" x="20" fill="#F0EDF8" rx="2"/>
        <rect width="14" height="4" x="40" fill="#FEF0E9" rx="2"/>
        <rect width="14" height="4" y="12" fill="#F0EDF8" rx="2"/>
        <rect width="14" height="4" x="40" y="24" fill="#FEF0E9" rx="2"/>
        <rect width="14" height="4" y="48" fill="#E1DBF1" rx="2"/>
        <rect width="14" height="4" x="40" y="36" fill="#FEF0E9" rx="2"/>
        <rect width="7" height="4" x="20" y="12" fill="#FEE1D3" rx="2"/>
        <rect width="7" height="4" x="27" y="36" fill="#6B4FBB" rx="2"/>
        <rect width="7" height="4" x="20" y="48" fill="#FEE1D3" rx="2"/>
        <rect width="7" height="4" y="24" fill="#FC6D26" rx="2"/>
        <rect width="21" height="4" x="13" y="24" fill="#E1DBF1" rx="2"/>
        <rect width="21" height="4" y="36" fill="#EEEEEE" rx="2"/>
        <rect width="7" height="4" x="33" y="12" fill="#6B4FBB" rx="2"/>
        <g transform="translate(98)">
          <rect width="14" height="4" fill="#FEE1D3" rx="2"/>
          <rect width="14" height="4" x="20" fill="#F0EDF8" rx="2"/>
          <rect width="14" height="4" x="40" fill="#FC6D26" rx="2"/>
          <rect width="14" height="4" y="12" fill="#FEF0E9" rx="2"/>
          <rect width="14" height="4" x="40" y="24" fill="#E1DBF1" rx="2"/>
          <rect width="14" height="4" y="48" fill="#F0EDF8" rx="2"/>
          <rect width="14" height="4" x="40" y="36" fill="#FEE1D3" rx="2"/>
          <rect width="7" height="4" x="20" y="12" fill="#FC6D26" rx="2"/>
          <rect width="7" height="4" x="27" y="36" fill="#6B4FBB" rx="2"/>
          <rect width="7" height="4" x="20" y="48" fill="#FC6D26" rx="2"/>
          <rect width="7" height="4" y="24" fill="#6B4FBB" rx="2"/>
          <rect width="21" height="4" x="13" y="24" fill="#FEE1D3" rx="2"/>
          <rect width="21" height="4" y="36" fill="#FEF0E9" rx="2"/>
          <rect width="7" height="4" x="33" y="12" fill="#6B4FBB" rx="2"/>
        </g>
        <g transform="translate(0 60)">
          <rect width="14" height="4" fill="#F0EDF8" rx="2"/>
          <rect width="14" height="4" x="20" fill="#6B4FBB" rx="2"/>
          <rect width="14" height="4" x="40" fill="#E1DBF1" rx="2"/>
          <rect width="14" height="4" y="12" fill="#FEF0E9" rx="2"/>
          <rect width="14" height="4" x="40" y="24" fill="#FEE1D3" rx="2"/>
          <rect width="7" height="4" x="20" y="12" fill="#EEEEEE" rx="2"/>
          <rect width="7" height="4" y="24" fill="#6B4FBB" rx="2"/>
          <rect width="21" height="4" x="13" y="24" fill="#FEF0E9" rx="2"/>
          <rect width="7" height="4" x="33" y="12" fill="#FC6D26" rx="2"/>
        </g>
        <rect width="4" height="63" x="74" y="13" fill="#EEEEEE" rx="2"/>
      </g>
      <rect width="230" height="4" y="27" fill="#EEEEEE" rx="2"/>
    </g>
    <g transform="translate(229 199)">
      <use fill="#FFFFFF" xlink:href="#e"/>
      <circle cx="31" cy="31" r="29" stroke="#EEEEEE" stroke-width="4"/>
      <path fill="#FC6D26" d="M29,29 L29,23 C29,21.8954305 29.8954305,21 31,21 C32.1045695,21 33,21.8954305 33,23 L33,29 L39,29 C40.1045695,29 41,29.8954305 41,31 C41,32.1045695 40.1045695,33 39,33 L33,33 L33,39 C33,40.1045695 32.1045695,41 31,41 C29.8954305,41 29,40.1045695 29,39 L29,33 L23,33 C21.8954305,33 21,32.1045695 21,31 C21,29.8954305 21.8954305,29 23,29 L29,29 Z"/>
    </g>
  </g>
</svg>
